X:30
T:GB/7d/30a Fisher Laddy
T:Escrick Sword Dance Tunes 1 of 2
S:Lewis Jones <lewiswjones:yahoo.co.uk> tradtunes 2012-8-10
M:4/4
L:1/8
K:F
|: A2AF A2AF | A2AG FEFG | A2A2 BAGF | EFGE F4 :|
|: c2cA d2d2 | BGAB c4 | A2A2 BAGF | EFGE F4 :|
